X:103
T:The Blacksmith's Hornpipe
B:Joyce, P. W.; "Old Irish Folk Music and Songs"
R:hornpipe
H:A short notice of this tune will be found in the Preface.
L:1/8
M:C
K:G
d2|gdBd cedc|BGBd cedc|BGBG cAcA|BGBG AFD d|
gdBd cedc|((3BAG) Bd cedc|Bdgd bagf|g2 g2 g2::fg|
afdf afc'a|bgdg bgd'b|afdf a2 ab|agfe d2 dg|
ecGc ecge|dBGB dBgd|egfe dcBA|G2 g2 g2:|
